X: 1870
T: Terkeyledi Gerçi Beni...
C: Zaharya
O: Turkey
F: http://compmusic.upf.edu/node/140
N: hicaz-uzzal--yuruksemai--yuruksemai--terk_eyledi--zaharya
N: makam= hicaz-uzzal
N: form= yuruksemai
N: usul= yuruksemai = 6/8
M: 6/8
L: 1/16
K: C _7/8B ^f ^c 
Q: 1/4=102
%%MIDI tuningsystem comma53
d4d4 d4e4 d4{e}c4  | B4{c}A4 G4G4 d8  | \
w:  Terk_ ey le di  ger  |  çi  *  *  be ni  ol   | 
d8 e2g2f2e2 e3dc2d2  | e8 e4d2c2 {d}c2B2A4  | 
w:  mâh  *  *  ce *  mâ  |  lim   SAZ  | 
d4d4 d4e4 d4{e}c4  | B4{c}A4 G4G4 d8  | \
w:  Terk_ ey le di  ger  |  çi  *  *  be ni  ol   | 
d8 e2g2f2e2 e3dc2d2  | e16-e4z4  | 
w:  mâh  *  *  ce *  mâ  |  lim    | 
e4e4 e4g4 =f4e4  | d4c4 B4A4 G6z2  | \
w:  Şa yes te  i  vasl_  |  et *  ti  gö nül   | 
A8 c4d4 e2d2c2d2  | e16-e4z4  | 
w:  mâl_ ü  me nâ  |  lim    | 
e4e4 e4g4 =f4e4  | d4c4 B4A4 G8  | A6B2 e2d2c2B2 B6A2  | \
w:  Şa yes te  i  vasl_  |  et *  ti  gö nül   |  mâl_ *  ü  *  me *  nâ  | 
A16-A4z4  | 
w:  lim    | 
c4d4 e4e4 e2=f2e2d2  | =f12f2e2 d8  | \
w:  Kur bâ nın  o lam   |  yâr   | 
g4=f4 e4d4 c4A4  | d12c2B2 A6z2  | 
w:  hay râ nın  o lam   |  dost   SAZ  | 
c4d4 e4e4 e2=f2e2d2  | =f12f2e2 d8  | \
w:  Kur bâ nın  o lam   |  yâr   | 
g4=f4 e4d4 c4A4  | d16-d4z4  | 
w:  hay râ nın  o lam   |  dost    | 
g4=f4 e4f4 e4d4  | e4d4 c4d4 c4B4  | \
w:  Yâr   |  yâr   | 
B16-B4z4  | G4F4 G4A4 G4A4  | 
w:  yâr   |  dost   | 
B4A4 B4c4 B4c4  | d16-d4z4  | d4c4 d4e4 e8  | \
w:  dost   |  dost    |  Câ nım  a  câ nım   | 
e8 e4f4 e8  | d8 a2g2g2f2 fefgf2e2  | 
w:  a  ce nâ nım   |  yâr  *  *  ta *  bî  | 
e12d2c2 {d}c2B2A4  | d4c4 d4e4 e8  | \
w:  bim   SAZ  |  Câ nım  a  câ nım   | 
e8 e4f4 e8  | d8 a2g2g2f2 fefgf2e2  | 
w:  a  ce nâ nım   |  yâr  *  *  ta *  bî  | 
e16-e4z4  | e4e4 e4g4 f4e4  | d4c4 B4A4 G6z2  | \
w:  bim    |  Şa yes te  i  vasl_  |  et *  ti  gö nül   | 
A8 c4d4 e2d2c2d2  | 
w:  mâl_ ü  me nâ  | 
e16-e4z4  | e4e4 e4g4 f4e4  | d4c4 B4A4 G8  | \
w:  lim    |  Şa yes te  i  vasl_  |  et *  ti  gö nül   | 
A6B2 e2d2c2B2 B6A2  | 
w:  mâl_ *  ü  *  me *  nâ  | 
A16-A4z4  | A4a4 a4a2^g2 a6z2  | =b4a4 ^g4^1/4f4 e8  | \
w:  lim    |  Fir kat le  ci *  ğer  |  hûn  *  i dim  am  | 
^1/4f8 e4d4 ^g2f2{g}f2e2  | 
w:  ma  ke rem  et  | 
e12d2c2 c2B2A4  | A4a4 a4a2^g2 a6z2  | \
w:  tin   SAZ  |  Fir kat le  ci *  ğer  | 
=b4a4 ^g4^1/4f4 e8  | ^1/4f8 e4d4 ^g2f2{g}f2e2  | 
w:  hûn  *  i dim  am  |  ma  ke rem  et  | 
e16-e4z4  | e4e4 e4g4 =f4e4  | d4c4 B4A4 G6z2  | \
w:  tin    |  Gel  gon ca cı ğım   |  serv_ *  i  kad dim   | 
A8 c4d4 e2d2c2d2  | 
w:  tâ ze  ni hâ  | 
e16-e4z4  | e4e4 e4g4 =f4e4  | d4c4 B4A4 G8  | \
w:  lim    |  Gel  gon ca cı ğım   |  serv_ *  i  kad dim   | 
A6B2 e2d2c2B2 B6A2  | 
w:  tâ *  ze  *  ni *  ha  | 
A16-A4z4  | c4d4 e4e4 e2=f2e2d2  | =f12f2e2 d8  | \
w:  lim    |  Kur bâ nın  o lam   |  yâr   | 
g4=f4 e4d4 c4A4  | 
w:  hay râ nın  o lam   | 
d12c2B2 A6z2  | c4d4 e4e4 e2=f2e2d2  | \
w:  dost   SAZ  |  Kur bâ nın  o lam   | 
=f12f2e2 d8  | g4=f4 e4d4 c4A4  | 
w:  yâr   |  hay râ nın  o lam   | 
d16-d4z4  | g4=f4 e4f4 e4d4  | e4d4 c4d4 c4B4  | \
w:  dost    |  Yâr   |  yâr   | 
B16-B4z4  | G4F4 G4A4 G4A4  | 
w:  yâr   |  dost   | 
B4A4 B4c4 B4c4  | d16-d4z4  | d4c4 d4e4 e8  | \
w:  dost   |  dost    |  Câ nım  a  câ nım   | 
e8 e4f4 e8  | d8 a2g2g2f2 fefgf2e2  | 
w:  a  ce nâ nım   |  yâr  *  *  ta *  bî  | 
e12d2c2 {d}c2B2A4  | d4c4 d4e4 e8  | \
w:  bim   SAZ  |  Câ nım  a  câ nım   | 
e8 e4f4 e8  | d8 a2g2g2f2 fefgf2e2  | 
w:  a  ce nâ nım   |  yâr  *  *  ta *  bî  | 
e16-e4z4  | e4e4 e4g4 f4e4  | d4c4 B4A4 G6z2  | \
w:  bim    |  Şa yes te  i  vasl_  |  et *  ti  gö nül   | 
A8 c4d4 e2d2c2d2  | 
w:  mâl_ ü  me nâ  | 
e16-e4z4  | e4e4 e4g4 f4e4  | d4c4 B4A4 G8  | \
w:  lim    |  Şa yes te  i  vasl_  |  et *  ti  gö nül   | 
A6B2 e2d2c2B2 B6A2  | 
w:  mâl_ *  ü  *  me *  nâ  | 
A16-A4z4  | |


